X: 13321
T: Flanagan Meets O'Hanlon
R: barndance
M: 4/4
K: Cmajor
B|:cded cAGE|CDCA, C2CA,|G,A,CD EAGE|DCDE D2 (3GAB|
cded cAGE|CDCA, C2CA,|G,A,CD EAGE|1 DCDE C3B:|2 DCDE C4||
G,2G,A, CDEG|AGcd edcB|A2FA ABcA|G2cA GFED|
C2DG, CDEG|AGcd edce|dcde ^fde^f|gaba g=fed|
c2cd cAGE|CDCA, C2CA,|G,A,CD ED (3EFG|A4 A3B|
c2cA GEGA|cdcA GECA,|G,A,CD EAGE|DCDE C3||

